docgen/src/images/media.svg

<svg width="53" height="54" viewBox="0 0 53 54" xmlns="http://www.w3.org/2000/svg"><title>media</title><defs><linearGradient x1="10.361%" y1="87.361%" x2="82.981%" y2="1.146%" id="a"><stop stop-color="#2EDE98" offset="0%"/><stop stop-color="#1CC7D0" offset="100%"/></linearGradient></defs><g fill-rule="nonzero" fill="url(#a)"><path d="M26.5 53.2C11.9 53.2 0 41.3 0 26.7S11.9.2 26.5.2 53 12.1 53 26.7 41.1 53.2 26.5 53.2zm0-51C13 2.2 2 13.2 2 26.7s11 24.5 24.5 24.5S51 40.2 51 26.7 40 2.2 26.5 2.2z"/><path d="M22.3 35.4c-.2 0-.3 0-.5-.1-.3-.2-.5-.5-.5-.9V19.1c0-.4.2-.7.5-.9.3-.2.7-.2 1 0l13.3 7.6c.3.2.5.5.5.9s-.2.7-.5.9l-13.3 7.7c-.2.1-.3.1-.5.1zm1-14.6v11.8l10.3-6-10.3-5.8z"/></g></svg>

<?xml version="1.0" encoding="UTF-8"?>
<svg width="53px" height="54px" viewBox="0 0 53 54" version="1.1" xmlns="http://www.w3.org/2000/svg" xmlns:xlink="http://www.w3.org/1999/xlink">
    <!-- Generator: Sketch 42 (36781) - http://www.bohemiancoding.com/sketch -->
    <title>media</title>
    <desc>Created with Sketch.</desc>
    <defs>
        <linearGradient x1="10.3607912%" y1="87.3612903%" x2="82.9811096%" y2="1.14611006%" id="linearGradient-1">
            <stop stop-color="#2EDE98" offset="0%"></stop>
            <stop stop-color="#1CC7D0" offset="100%"></stop>
        </linearGradient>
    </defs>
    <g id="Page-1" stroke="none" stroke-width="1" fill="none" fill-rule="evenodd">
        <g id="media" fill-rule="nonzero" fill="url(#linearGradient-1)">
            <g id="Group">
                <path d="M26.5,53.2 C11.9,53.2 0,41.3 0,26.7 C0,12.1 11.9,0.2 26.5,0.2 C41.1,0.2 53,12.1 53,26.7 C53,41.3 41.1,53.2 26.5,53.2 Z M26.5,2.2 C13,2.2 2,13.2 2,26.7 C2,40.2 13,51.2 26.5,51.2 C40,51.2 51,40.2 51,26.7 C51,13.2 40,2.2 26.5,2.2 Z" id="Shape"></path>
                <path d="M22.3,35.4 C22.1,35.4 22,35.4 21.8,35.3 C21.5,35.1 21.3,34.8 21.3,34.4 L21.3,19.1 C21.3,18.7 21.5,18.4 21.8,18.2 C22.1,18 22.5,18 22.8,18.2 L36.1,25.8 C36.4,26 36.6,26.3 36.6,26.7 C36.6,27.1 36.4,27.4 36.1,27.6 L22.8,35.3 C22.6,35.4 22.5,35.4 22.3,35.4 Z M23.3,20.8 L23.3,32.6 L33.6,26.6 L23.3,20.8 Z" id="Shape"></path>
            </g>
        </g>
    </g>
</svg>
